static/cards/FrenchDeck/cyberwave/card_diamonds_08.svg

<svg xmlns="http://www.w3.org/2000/svg" width="822" height="1122" fill="none" viewBox="0 0 822 1122"><rect width="822" height="1122" fill="#1a0033" rx="20"/><g fill="#b366ff" clip-path="url(#a)"><path d="M121.008 160.92q-15.616 0-24.448-6.528t-8.832-18.304q0-8.448 4.608-14.336 4.735-6.016 12.544-8.064-14.465-5.248-14.465-19.712 0-11.52 7.808-17.664 7.936-6.272 22.785-6.272 14.847 0 22.656 6.272 7.935 6.144 7.936 17.664 0 14.464-14.464 19.712 7.808 2.047 12.416 8.064 4.736 5.888 4.736 14.336 0 11.776-8.832 18.304t-24.448 6.528m0-50.176q11.775 0 17.792-3.84 6.144-3.84 6.144-12.928 0-9.6-5.888-13.824-5.889-4.224-18.048-4.224-12.16 0-18.048 4.224-5.889 4.224-5.888 13.824 0 9.088 6.016 12.928 6.144 3.84 17.92 3.84m0 44.288q13.44 0 19.968-4.608 6.656-4.736 6.656-14.336 0-19.328-26.624-19.328t-26.624 19.328q0 9.6 6.528 14.336 6.656 4.608 20.096 4.608M112.679 208.481c3.959-5.938 12.683-5.938 16.642 0l21.981 32.972a10 10 0 0 1 0 11.094l-21.981 32.972c-3.959 5.938-12.683 5.938-16.642 0l-21.981-32.972a10 10 0 0 1 0-11.094zM692.992 957.08q15.616 0 24.448 6.528t8.832 18.304q0 8.448-4.608 14.336c-3.157 4.012-7.338 6.702-12.544 8.062q14.464 5.25 14.464 19.71 0 11.52-7.808 17.67-7.935 6.27-22.784 6.27-14.847 0-22.656-6.27-7.936-6.15-7.936-17.67 0-14.46 14.464-19.71c-5.205-1.36-9.344-4.05-12.416-8.062q-4.736-5.888-4.736-14.336 0-11.776 8.832-18.304t24.448-6.528m0 50.18q-11.775 0-17.792 3.84c-4.096 2.56-6.144 6.87-6.144 12.92q0 9.6 5.888 13.83c3.926 2.81 9.942 4.22 18.048 4.22 8.107 0 14.123-1.41 18.048-4.22q5.889-4.23 5.888-13.83c0-6.05-2.005-10.36-6.016-12.92q-6.144-3.84-17.92-3.84m0-44.292q-13.44 0-19.968 4.608-6.656 4.736-6.656 14.336 0 19.328 26.624 19.328t26.624-19.328q0-9.6-6.528-14.336-6.656-4.608-20.096-4.608M701.321 909.519c-3.959 5.938-12.683 5.938-16.642 0l-21.981-32.972a10 10 0 0 1 0-11.094l21.981-32.972c3.959-5.938 12.683-5.938 16.642 0l21.981 32.972a10 10 0 0 1 0 11.094z"/></g><path stroke="#b366ff" stroke-width="8" d="M406.008 524.699c2.375-3.562 7.609-3.562 9.984 0l21.982 32.973a6 6 0 0 1 0 6.656l-21.982 32.973c-2.375 3.562-7.609 3.562-9.984 0l-21.982-32.973a6 6 0 0 1 0-6.656zM322.008 686.699c2.375-3.562 7.609-3.562 9.984 0l21.982 32.973a6 6 0 0 1 0 6.656l-21.982 32.973c-2.375 3.562-7.609 3.562-9.984 0l-21.982-32.973a6 6 0 0 1 0-6.656zM489.008 686.699c2.375-3.562 7.609-3.562 9.984 0l21.982 32.973a6 6 0 0 1 0 6.656l-21.982 32.973c-2.375 3.562-7.609 3.562-9.984 0l-21.982-32.973a6 6 0 0 1 0-6.656zM574.008 524.699c2.375-3.562 7.609-3.562 9.984 0l21.982 32.973a6 6 0 0 1 0 6.656l-21.982 32.973c-2.375 3.562-7.609 3.562-9.984 0l-21.982-32.973a6 6 0 0 1 0-6.656zM238.008 524.699c2.375-3.562 7.609-3.562 9.984 0l21.982 32.973a6 6 0 0 1 0 6.656l-21.982 32.973c-2.375 3.562-7.609 3.562-9.984 0l-21.982-32.973a6 6 0 0 1 0-6.656zM574.008 362.699c2.375-3.562 7.609-3.562 9.984 0l21.982 32.973a6 6 0 0 1 0 6.656l-21.982 32.973c-2.375 3.562-7.609 3.562-9.984 0l-21.982-32.973a6 6 0 0 1 0-6.656zM238.008 362.699c2.375-3.562 7.609-3.562 9.984 0l21.982 32.973a6 6 0 0 1 0 6.656l-21.982 32.973c-2.375 3.562-7.609 3.562-9.984 0l-21.982-32.973a6 6 0 0 1 0-6.656zM406.008 362.699c2.375-3.562 7.609-3.562 9.984 0l21.982 32.973a6 6 0 0 1 0 6.656l-21.982 32.973c-2.375 3.562-7.609 3.562-9.984 0l-21.982-32.973a6 6 0 0 1 0-6.656z"/><defs><clipPath id="a"><path fill="#fff" d="M46 48h722v1022H46z"/></clipPath></defs></svg>

<svg width="822" height="1122" viewBox="0 0 822 1122" fill="none" xmlns="http://www.w3.org/2000/svg">
<rect width="822" height="1122" rx="20" fill="#1A0033"/>
<g clip-path="url(#clip0_31_731)">
<path d="M121.008 160.92C110.597 160.92 102.448 158.744 96.5595 154.392C90.6715 150.04 87.7275 143.939 87.7275 136.088C87.7275 130.456 89.2635 125.677 92.3355 121.752C95.4928 117.741 99.6742 115.053 104.88 113.688C95.2368 110.189 90.4155 103.619 90.4155 93.976C90.4155 86.296 93.0182 80.408 98.2235 76.312C103.514 72.1307 111.109 70.04 121.008 70.04C130.906 70.04 138.458 72.1307 143.664 76.312C148.954 80.408 151.6 86.296 151.6 93.976C151.6 103.619 146.778 110.189 137.136 113.688C142.341 115.053 146.48 117.741 149.552 121.752C152.709 125.677 154.288 130.456 154.288 136.088C154.288 143.939 151.344 150.04 145.456 154.392C139.568 158.744 131.418 160.92 121.008 160.92ZM121.008 110.744C128.858 110.744 134.789 109.464 138.8 106.904C142.896 104.344 144.944 100.035 144.944 93.976C144.944 87.576 142.981 82.968 139.056 80.152C135.13 77.336 129.114 75.928 121.008 75.928C112.901 75.928 106.885 77.336 102.96 80.152C99.0342 82.968 97.0715 87.576 97.0715 93.976C97.0715 100.035 99.0768 104.344 103.088 106.904C107.184 109.464 113.157 110.744 121.008 110.744ZM121.008 155.032C129.968 155.032 136.624 153.496 140.976 150.424C145.413 147.267 147.632 142.488 147.632 136.088C147.632 123.203 138.757 116.76 121.008 116.76C103.258 116.76 94.3835 123.203 94.3835 136.088C94.3835 142.488 96.5595 147.267 100.912 150.424C105.349 153.496 112.048 155.032 121.008 155.032Z" fill="#B366FF"/>
<path d="M112.679 208.481C116.638 202.543 125.362 202.543 129.321 208.481L151.302 241.453C153.541 244.812 153.541 249.188 151.302 252.547L129.321 285.519C125.362 291.457 116.638 291.457 112.679 285.519L90.698 252.547C88.4587 249.188 88.4587 244.812 90.698 241.453L112.679 208.481Z" fill="#B366FF"/>
<path d="M692.992 957.08C703.403 957.08 711.552 959.256 717.44 963.608C723.328 967.96 726.272 974.061 726.272 981.912C726.272 987.544 724.736 992.323 721.664 996.248C718.507 1000.26 714.326 1002.95 709.12 1004.31C718.763 1007.81 723.584 1014.38 723.584 1024.02C723.584 1031.7 720.982 1037.59 715.776 1041.69C710.486 1045.87 702.891 1047.96 692.992 1047.96C683.094 1047.96 675.542 1045.87 670.336 1041.69C665.046 1037.59 662.4 1031.7 662.4 1024.02C662.4 1014.38 667.222 1007.81 676.864 1004.31C671.659 1002.95 667.52 1000.26 664.448 996.248C661.291 992.323 659.712 987.544 659.712 981.912C659.712 974.061 662.656 967.96 668.544 963.608C674.432 959.256 682.582 957.08 692.992 957.08ZM692.992 1007.26C685.142 1007.26 679.211 1008.54 675.2 1011.1C671.104 1013.66 669.056 1017.97 669.056 1024.02C669.056 1030.42 671.019 1035.03 674.944 1037.85C678.87 1040.66 684.886 1042.07 692.992 1042.07C701.099 1042.07 707.115 1040.66 711.04 1037.85C714.966 1035.03 716.928 1030.42 716.928 1024.02C716.928 1017.97 714.923 1013.66 710.912 1011.1C706.816 1008.54 700.843 1007.26 692.992 1007.26ZM692.992 962.968C684.032 962.968 677.376 964.504 673.024 967.576C668.587 970.733 666.368 975.512 666.368 981.912C666.368 994.797 675.243 1001.24 692.992 1001.24C710.742 1001.24 719.616 994.797 719.616 981.912C719.616 975.512 717.44 970.733 713.088 967.576C708.651 964.504 701.952 962.968 692.992 962.968Z" fill="#B366FF"/>
<path d="M701.321 909.519C697.362 915.457 688.638 915.457 684.679 909.519L662.698 876.547C660.459 873.188 660.459 868.812 662.698 865.453L684.679 832.481C688.638 826.543 697.362 826.543 701.321 832.481L723.302 865.453C725.541 868.812 725.541 873.188 723.302 876.547L701.321 909.519Z" fill="#B366FF"/>
</g>
<path d="M406.008 524.699C408.383 521.137 413.617 521.137 415.992 524.699L437.974 557.672C439.317 559.687 439.317 562.313 437.974 564.328L415.992 597.301C413.617 600.863 408.383 600.863 406.008 597.301L384.026 564.328C382.683 562.313 382.683 559.687 384.026 557.672L406.008 524.699Z" stroke="#B366FF" stroke-width="8"/>
<path d="M322.008 686.699C324.383 683.137 329.617 683.137 331.992 686.699L353.974 719.672C355.317 721.687 355.317 724.313 353.974 726.328L331.992 759.301C329.617 762.863 324.383 762.863 322.008 759.301L300.026 726.328C298.683 724.313 298.683 721.687 300.026 719.672L322.008 686.699Z" stroke="#B366FF" stroke-width="8"/>
<path d="M489.008 686.699C491.383 683.137 496.617 683.137 498.992 686.699L520.974 719.672C522.317 721.687 522.317 724.313 520.974 726.328L498.992 759.301C496.617 762.863 491.383 762.863 489.008 759.301L467.026 726.328C465.683 724.313 465.683 721.687 467.026 719.672L489.008 686.699Z" stroke="#B366FF" stroke-width="8"/>
<path d="M574.008 524.699C576.383 521.137 581.617 521.137 583.992 524.699L605.974 557.672C607.317 559.687 607.317 562.313 605.974 564.328L583.992 597.301C581.617 600.863 576.383 600.863 574.008 597.301L552.026 564.328C550.683 562.313 550.683 559.687 552.026 557.672L574.008 524.699Z" stroke="#B366FF" stroke-width="8"/>
<path d="M238.008 524.699C240.383 521.137 245.617 521.137 247.992 524.699L269.974 557.672C271.317 559.687 271.317 562.313 269.974 564.328L247.992 597.301C245.617 600.863 240.383 600.863 238.008 597.301L216.026 564.328C214.683 562.313 214.683 559.687 216.026 557.672L238.008 524.699Z" stroke="#B366FF" stroke-width="8"/>
<path d="M574.008 362.699C576.383 359.137 581.617 359.137 583.992 362.699L605.974 395.672C607.317 397.687 607.317 400.313 605.974 402.328L583.992 435.301C581.617 438.863 576.383 438.863 574.008 435.301L552.026 402.328C550.683 400.313 550.683 397.687 552.026 395.672L574.008 362.699Z" stroke="#B366FF" stroke-width="8"/>
<path d="M238.008 362.699C240.383 359.137 245.617 359.137 247.992 362.699L269.974 395.672C271.317 397.687 271.317 400.313 269.974 402.328L247.992 435.301C245.617 438.863 240.383 438.863 238.008 435.301L216.026 402.328C214.683 400.313 214.683 397.687 216.026 395.672L238.008 362.699Z" stroke="#B366FF" stroke-width="8"/>
<path d="M406.008 362.699C408.383 359.137 413.617 359.137 415.992 362.699L437.974 395.672C439.317 397.687 439.317 400.313 437.974 402.328L415.992 435.301C413.617 438.863 408.383 438.863 406.008 435.301L384.026 402.328C382.683 400.313 382.683 397.687 384.026 395.672L406.008 362.699Z" stroke="#B366FF" stroke-width="8"/>
<defs>
<clipPath id="clip0_31_731">
<rect width="722" height="1022" fill="white" transform="translate(46 48)"/>
</clipPath>
</defs>
</svg>
